X:691
T:Softly Good Tummas
C:Kynaston 1718
S:Colin Hume's website,  colinhume.com  - chords can also be printed below the stave.
Q:1/2=120
M:2/2
K:Dm
P:B
FE |: "Dm"DEFD "A7"EFGE | "Dm"F2D2 "A7"E2^C2 | "Dm"D2A,2 "C"E2A,2 | "Bb"F2A,2 "A7"E2A,2 |
"Dm"DEFD "A7"EFGE | "Dm"F2D2 "A7"E2^C2 | "Dm"D2A,2 "A7"E2A,2 |1 "Dm"F2D4 ^C2 :|2 "Dm"F2 D4 ||
P:B
|: d^c | "Dm"defd "A7"efge | "Dm"f2d2 "A7"e2^c2 | "Dm"d2A2 "C"e2A2 | "Bb"f2A2 "A7"e2^c2 |
"Dm"defd "C"efge | "Bb"fgaf "A7"efge | "Gm"defd "A7"^cdec | "Dm"d6 :|

